X: 23069
T: Lathrop's
R: waltz
M: 3/4
K: Gmajor
|G4A2|B3AG2|g4a2|b3ag2|e2c2g2|d2B2G2|A3B A2|A4D2|
G4A2|B3AG2|g4a2|b3ag2|e2c2g2|d2B2G2|D2A2F2|G4g3|
e2d2g2|d2B2g2|c2A2c2|B3cd2|e2c2g2|d2B2G2|A3BA2|A4g2|
e2d2g2|d2B2g2|c2A2c2|B3cd2|e3fg2|G3AB2|D2A2F2|G6|

